src/asset/site/footer_twitter.svg

<svg width="31" height="31" viewBox="0 0 31 31" fill="none" xmlns="http://www.w3.org/2000/svg">
<path d="M30 15.5C30 23.5081 23.5081 30 15.5 30C7.49187 30 1 23.5081 1 15.5C1 7.49187 7.49187 1 15.5 1C23.5081 1 30 7.49187 30 15.5Z" stroke="currentColor" stroke-width="2"/>
<path fill-rule="evenodd" clip-rule="evenodd" d="M21.9416 11.0553C22.5985 10.6496 23.1025 10.0065 23.3391 9.24036C22.7241 9.61686 22.0444 9.88914 21.3193 10.0365C20.7407 9.39809 19.9137 9 18.9985 9C17.2426 9 15.8197 10.4694 15.8197 12.2815C15.8197 12.5387 15.8461 12.7894 15.9007 13.0288C13.2587 12.8917 10.916 11.5867 9.34658 9.59996C9.07274 10.0863 8.91625 10.6496 8.91625 11.2505C8.91625 12.3885 9.47759 13.3931 10.331 13.9827C9.80966 13.9658 9.31929 13.8166 8.88987 13.5724V13.6128C8.88987 15.2033 9.98525 16.53 11.4418 16.8304C11.1743 16.9074 10.8941 16.9459 10.603 16.9459C10.3983 16.9459 10.1981 16.9262 10.0053 16.8877C10.4092 18.1909 11.5837 19.1411 12.9757 19.1664C11.8867 20.0471 10.5157 20.571 9.02634 20.571C8.76978 20.571 8.51595 20.5569 8.26758 20.5259C9.67501 21.4564 11.3463 22 13.1422 22C18.9921 22 22.1891 16.9994 22.1891 12.6626C22.1891 12.5199 22.1873 12.3782 22.1809 12.2383C22.8023 11.7754 23.3427 11.197 23.7676 10.5389C23.1971 10.7999 22.5839 10.9764 21.9416 11.0553Z" fill="currentColor"/>
</svg>

<svg width="31" height="31" fill="none" xmlns="http://www.w3.org/2000/svg"><path d="M30 15.5C30 23.508 23.508 30 15.5 30S1 23.508 1 15.5 7.492 1 15.5 1 30 7.492 30 15.5z" stroke="currentColor" stroke-width="2"/><path fill-rule="evenodd" clip-rule="evenodd" d="M21.942 11.055a3.267 3.267 0 001.397-1.815 6.244 6.244 0 01-2.02.796A3.125 3.125 0 0019 9c-1.756 0-3.18 1.47-3.18 3.281 0 .258.027.508.082.748-2.642-.137-4.985-1.442-6.554-3.429a3.354 3.354 0 00-.43 1.65c0 1.139.56 2.143 1.414 2.733a3.115 3.115 0 01-1.441-.41v.04c0 1.59 1.095 2.917 2.552 3.217a3.02 3.02 0 01-.839.116c-.205 0-.405-.02-.598-.058.404 1.303 1.579 2.253 2.97 2.278a6.255 6.255 0 01-4.707 1.36A8.804 8.804 0 0013.142 22c5.85 0 9.047-5 9.047-9.337 0-.143-.002-.285-.008-.425a6.56 6.56 0 001.587-1.7 6.199 6.199 0 01-1.826.517z" fill="currentColor"/></svg>
